eggs/Monoblos.svg

<?xml version="1.0" encoding="UTF-8" standalone="no"?>
<!-- Created with Inkscape (http://www.inkscape.org/) -->

<svg
   xmlns:dc="http://purl.org/dc/elements/1.1/"
   xmlns:cc="http://creativecommons.org/ns#"
   xmlns:rdf="http://www.w3.org/1999/02/22-rdf-syntax-ns#"
   xmlns:svg="http://www.w3.org/2000/svg"
   xmlns="http://www.w3.org/2000/svg"
   xmlns:sodipodi="http://sodipodi.sourceforge.net/DTD/sodipodi-0.dtd"
   xmlns:inkscape="http://www.inkscape.org/namespaces/inkscape"
   width="150"
   height="150"
   viewBox="0 0 39.687499 39.687499"
   version="1.1"
   id="svg8"
   inkscape:version="0.92.4 (5da689c313, 2019-01-14)"
   sodipodi:docname="MHST2-Monoblos Egg.svg">
  <defs
     id="defs2" />
  <sodipodi:namedview
     id="base"
     pagecolor="#ffffff"
     bordercolor="#666666"
     borderopacity="1.0"
     inkscape:pageopacity="0.0"
     inkscape:pageshadow="2"
     inkscape:zoom="1.4"
     inkscape:cx="-23.848497"
     inkscape:cy="93.832289"
     inkscape:document-units="px"
     inkscape:current-layer="layer1"
     showgrid="false"
     units="px"
     inkscape:window-width="1304"
     inkscape:window-height="745"
     inkscape:window-x="-8"
     inkscape:window-y="-8"
     inkscape:window-maximized="1"
     showguides="true"
     inkscape:guide-bbox="true"
     inkscape:snap-smooth-nodes="true"
     inkscape:snap-global="true">
    <inkscape:grid
       type="xygrid"
       id="grid878" />
  </sodipodi:namedview>
  <metadata
     id="metadata5">
    <rdf:RDF>
      <cc:Work
         rdf:about="">
        <dc:format>image/svg+xml</dc:format>
        <dc:type
           rdf:resource="http://purl.org/dc/dcmitype/StillImage" />
        <dc:title></dc:title>
      </cc:Work>
    </rdf:RDF>
  </metadata>
  <g
     inkscape:label="Layer 1"
     inkscape:groupmode="layer"
     id="layer1"
     transform="translate(0,-257.31251)">
    <path
       inkscape:connector-curvature="0"
       style="fill:#ff440b;fill-opacity:1;stroke:none;stroke-width:1.05833328;stroke-linecap:butt;stroke-linejoin:miter;stroke-miterlimit:4;stroke-dasharray:none;stroke-opacity:1"
       d="m 19.84375,259.34934 c -5.953125,0 -14.0797612,5.97667 -14.0797612,18.92236 0,10.44157 7.3398602,16.69148 14.0797612,16.69148 6.739901,0 14.079758,-6.24991 14.079758,-16.69148 0,-12.94569 -8.126633,-18.92236 -14.079758,-18.92236 z"
       id="path4584-5" />
    <path
       style="fill:#ff740d;stroke:none;stroke-width:1px;stroke-linecap:butt;stroke-linejoin:miter;stroke-opacity:1;fill-opacity:1"
       d="M 72.78125 8.640625 C 71.584263 8.6713136 70.892578 8.75 70.892578 8.75 C 70.892578 8.75 59.999443 20.089021 54.285156 25.267578 C 48.570869 30.446174 40.714564 29.285129 35.357422 32.410156 L 30 40.177734 C 32.142857 39.017004 38.927734 37.947266 38.927734 37.947266 C 33.749162 43.036551 28.660156 45.447266 28.660156 45.447266 L 26.25 54.107422 C 31.071429 53.303857 43.571425 40.000549 52.5 33.839844 C 61.428571 27.679138 75.268416 21.963707 77.589844 19.285156 C 79.911275 16.606567 86.24972 13.035156 92.142578 13.035156 C 84.50865 8.883364 76.37221 8.5485592 72.78125 8.640625 z M 106.33984 21.517578 C 106.33984 21.517578 95.178013 22.320604 89.910156 23.927734 C 84.6423 25.534865 58.75 45.535156 58.75 45.535156 C 58.75 45.535156 71.518136 45.982148 75.357422 45 C 79.196708 44.017852 88.393413 39.733014 90.714844 39.197266 C 93.036271 38.661555 111.78599 43.571143 120.35742 42.767578 L 115.625 33.214844 C 112.23214 33.571971 103.65989 32.58855 100.17773 32.410156 C 96.695595 32.231574 89.822266 33.392578 89.822266 33.392578 C 89.822266 33.392578 93.303295 30.088978 94.642578 29.642578 C 95.981865 29.195951 112.76758 29.017578 112.76758 29.017578 L 106.33984 21.517578 z M 95.855469 49.912109 C 94.883789 49.896418 94.128906 49.921872 93.660156 50 C 89.910154 50.624983 84.017018 55.445884 79.552734 55.535156 C 75.088447 55.624353 67.321987 54.018683 65.089844 54.197266 C 62.8577 54.376037 54.642298 57.679428 53.035156 58.572266 C 51.428014 59.465141 40.535715 60.0901 38.125 60.447266 C 35.714288 60.804431 30.44587 59.821123 29.285156 59.642578 C 28.124443 59.463806 24.197266 61.517578 24.197266 61.517578 L 22.857422 70.892578 C 22.857422 70.892578 27.589286 69.017007 28.75 68.927734 C 29.910714 68.838538 34.196705 70 38.482422 70 C 42.768134 70 54.285992 65.536264 59.107422 64.464844 C 63.928848 63.393385 83.304409 62.499452 88.572266 60.535156 C 93.840126 58.57086 105.98298 57.232713 109.19727 58.839844 C 112.41155 60.447012 126.16016 60.535156 126.16016 60.535156 L 126.60742 62.5 C 126.60742 62.5 123.05361 67.306456 118.48242 69.732422 C 122.52586 71.16766 126.60742 70.982422 126.60742 70.982422 L 128.125 63.572266 L 124.46484 52.052734 C 120.08985 52.130782 102.65723 50.021947 95.855469 49.912109 z M 105.40234 68.802734 C 96.784878 68.945028 85.669922 70.870539 80.982422 73.75 C 74.732421 77.589282 72.857419 81.696691 70.982422 82.857422 C 69.107421 84.018115 52.678852 93.393108 50.982422 94.732422 C 49.285992 96.071697 35.179409 97.390495 28.482422 88.302734 C 31.160993 87.856334 38.304406 90.179321 44.822266 88.572266 C 51.340122 86.965135 71.072266 71.607422 71.072266 71.607422 C 71.072266 71.607422 64.642857 73.303545 59.375 73.125 C 54.107143 72.946228 46.964008 77.052752 42.142578 77.677734 C 37.321151 78.302755 28.928292 80.536555 27.142578 81.072266 C 25.356864 81.607976 21.785156 79.216797 21.785156 79.216797 L 23.927734 93.927734 C 23.927734 93.927734 31.428571 100.17775 38.75 100.80273 C 46.071429 101.42775 52.5 101.42773 52.5 101.42773 C 52.5 101.42773 47.947268 104.01785 44.197266 105 C 40.447267 105.98215 30.624442 104.99971 26.160156 103.39258 L 31.427734 115.89258 C 31.427734 115.89258 39.642579 117.32225 48.392578 115.44727 C 57.142578 113.57228 62.321148 105.08983 64.017578 101.96484 C 65.714004 98.839855 77.946148 94.553312 79.642578 92.142578 C 81.339008 89.731882 85.267299 81.695856 93.660156 78.035156 C 102.05301 74.374457 112.85742 69.285156 112.85742 69.285156 C 110.87081 68.905692 108.27483 68.755303 105.40234 68.802734 z M 109.66211 78.701172 C 102.76361 78.563196 91.657646 92.834014 89.732422 95.177734 C 87.67885 97.677741 69.375282 107.1434 68.482422 108.83984 C 67.589565 110.53628 63.124164 118.3044 53.927734 121.07227 C 44.731305 123.84013 36.072266 122.5 36.072266 122.5 L 44.375 130.89258 C 44.375 130.89258 57.768694 128.48296 62.322266 124.82227 C 66.875837 121.16153 72.499163 119.01783 77.052734 119.375 C 75.356305 123.74999 63.303013 135.08874 54.910156 136.16016 L 60.802734 139.73242 C 60.802734 139.73242 66.518694 138.12471 69.822266 136.51758 C 73.125837 134.91045 80.088729 135.26841 83.660156 133.21484 C 87.231583 131.16128 92.142582 125.35798 95.267578 124.82227 C 98.392579 124.28656 108.125 128.03516 108.125 128.03516 L 116.96484 119.10742 C 116.96484 119.10742 109.55329 119.28525 103.39258 116.51758 C 101.01147 115.44782 96.409357 116.08936 93.654297 115.9082 C 89.281115 115.62058 86.714254 114.88769 83.482422 114.28516 C 78.214565 113.30305 75.982422 113.57227 75.982422 113.57227 C 75.982422 113.57227 79.821709 111.33927 87.232422 111.25 C 94.643138 111.1608 105.00028 107.23189 112.23242 107.14258 C 119.46456 107.05338 122.76758 107.94727 122.76758 107.94727 L 124.91016 101.78516 C 124.91016 101.78516 118.12584 102.14371 113.57227 100.44727 C 113.57227 100.44727 119.46456 99.196974 123.48242 97.589844 C 117.76814 95.089837 105.26758 95.625938 99.642578 97.322266 C 103.57115 92.947387 110.80273 89.284862 115.17773 88.927734 C 119.55273 88.570569 127.5 89.464844 127.5 89.464844 L 128.21484 81.607422 C 128.21484 81.607422 117.67885 81.249158 110.98242 78.927734 C 110.56389 78.782645 110.12201 78.71037 109.66211 78.701172 z "
       transform="matrix(0.26458333,0,0,0.26458333,0,257.31251)"
       id="path863" />
    <path
       style="opacity:0.23800001;fill:#ffffff;fill-opacity:1;stroke:none;stroke-width:0.26458332px;stroke-linecap:butt;stroke-linejoin:miter;stroke-opacity:1"
       d="m 19.84375,259.34933 c -8.8857,0 -14.0797606,9.48073 -14.0797606,18.92236 0,0 1.7175332,-16.91778 14.0797606,-16.91778 12.362227,0 14.07976,16.91778 14.07976,16.91778 0,-9.44163 -5.19406,-18.92236 -14.07976,-18.92236 z"
       id="path4669"
       inkscape:connector-curvature="0"
       sodipodi:nodetypes="scscs" />
    <path
       style="opacity:0.54100001;fill:#000000;stroke:none;stroke-width:0.26458332px;stroke-linecap:butt;stroke-linejoin:miter;stroke-opacity:1"
       d="m 5.7639894,278.27169 c 0.2495754,12.68227 10.9383316,16.69149 14.0797606,16.69149 3.141429,0 13.830186,-4.00922 14.07976,-16.69149 -1.821762,10.2695 -10.606269,13.43381 -14.07976,13.43381 -3.473491,0 -12.2579967,-3.16431 -14.0797606,-13.43381 z"
       id="path4617"
       inkscape:connector-curvature="0" />
    <path
       style="fill:none;stroke:#000000;stroke-width:1.05833328;stroke-linecap:butt;stroke-linejoin:miter;stroke-miterlimit:4;stroke-dasharray:none;stroke-opacity:1"
       d="m 19.84375,259.34933 c -5.953125,0 -14.0797606,5.97667 -14.0797606,18.92236 0,10.44158 7.3398596,16.69149 14.0797606,16.69149 6.739901,0 14.07976,-6.24991 14.07976,-16.69149 0,-12.94569 -8.126635,-18.92236 -14.07976,-18.92236 z"
       id="path4584"
       inkscape:connector-curvature="0" />
  </g>
</svg>

<svg xmlns="http://www.w3.org/2000/svg" viewBox="0 0 39.687 39.687"><path style="fill:#ff440b;fill-opacity:1;stroke:none;stroke-width:1.05833328;stroke-linecap:butt;stroke-linejoin:miter;stroke-miterlimit:4;stroke-dasharray:none;stroke-opacity:1" d="M19.844 259.35c-5.953 0-14.08 5.976-14.08 18.922 0 10.441 7.34 16.691 14.08 16.691s14.08-6.25 14.08-16.691c0-12.946-8.127-18.923-14.08-18.923z" transform="translate(0 -257.313)"/><path style="fill:#ff740d;stroke:none;stroke-width:1px;stroke-linecap:butt;stroke-linejoin:miter;stroke-opacity:1;fill-opacity:1" d="M72.781 8.64c-1.197.031-1.888.11-1.888.11S59.999 20.089 54.285 25.268c-5.714 5.178-13.57 4.017-18.928 7.142L30 40.178c2.143-1.161 8.928-2.23 8.928-2.23-5.179 5.089-10.268 7.5-10.268 7.5l-2.41 8.66C31.071 53.303 43.571 40 52.5 33.84c8.929-6.16 22.768-11.876 25.09-14.555 2.321-2.678 8.66-6.25 14.553-6.25-7.634-4.152-15.77-4.486-19.362-4.394zm33.559 12.878s-11.162.803-16.43 2.41c-5.268 1.607-31.16 21.607-31.16 21.607s12.768.447 16.607-.535c3.84-.982 13.036-5.267 15.358-5.803 2.321-.535 21.071 4.374 29.642 3.57l-4.732-9.552c-3.393.357-11.965-.626-15.447-.805-3.482-.178-10.356.983-10.356.983s3.481-3.304 4.82-3.75c1.34-.447 18.126-.625 18.126-.625l-6.428-7.5zM95.855 49.912c-.971-.016-1.726.01-2.195.088-3.75.625-9.643 5.446-14.107 5.535-4.465.09-12.231-1.516-14.463-1.338-2.232.179-10.448 3.482-12.055 4.375-1.607.893-12.5 1.518-14.91 1.875s-7.68-.626-8.84-.804c-1.16-.18-5.088 1.875-5.088 1.875l-1.34 9.375s4.732-1.876 5.893-1.965c1.16-.09 5.447 1.072 9.732 1.072 4.286 0 15.804-4.464 20.625-5.535 4.822-1.072 24.197-1.966 29.465-3.93 5.268-1.964 17.411-3.302 20.625-1.695 3.215 1.607 16.963 1.695 16.963 1.695l.447 1.965s-3.553 4.806-8.125 7.232c4.044 1.436 8.125 1.25 8.125 1.25l1.518-7.41-3.66-11.52c-4.375.079-21.808-2.03-28.61-2.14zm9.547 18.89c-8.617.143-19.732 2.069-24.42 4.948-6.25 3.84-8.125 7.947-10 9.107-1.875 1.161-18.303 10.536-20 11.875-1.696 1.34-15.803 2.658-22.5-6.43 2.679-.446 9.822 1.877 16.34.27 6.518-1.607 26.25-16.965 26.25-16.965s-6.43 1.697-11.697 1.518c-5.268-.179-12.411 3.928-17.232 4.553-4.822.625-13.215 2.859-15 3.394-1.786.536-5.358-1.855-5.358-1.855l2.143 14.71s7.5 6.25 14.822 6.876c7.321.625 13.75.625 13.75.625s-4.553 2.59-8.303 3.572c-3.75.982-13.573 0-18.037-1.607l5.268 12.5s8.215 1.43 16.965-.446c8.75-1.875 13.928-10.357 15.625-13.482 1.696-3.125 13.928-7.412 15.625-9.822 1.696-2.411 5.624-10.447 14.017-14.108 8.393-3.66 19.197-8.75 19.197-8.75-1.986-.38-4.582-.53-7.455-.482zm4.26 9.9c-6.898-.139-18.004 14.132-19.93 16.476-2.053 2.5-20.357 11.965-21.25 13.662-.892 1.696-5.358 9.464-14.554 12.232-9.197 2.768-17.856 1.428-17.856 1.428l8.303 8.393s13.394-2.41 17.947-6.07c4.554-3.661 10.177-5.805 14.73-5.448-1.696 4.375-13.749 15.714-22.142 16.785l5.893 3.572s5.716-1.607 9.02-3.214c3.303-1.608 10.266-1.25 13.837-3.303 3.572-2.054 8.483-7.857 11.608-8.393 3.125-.535 12.857 3.213 12.857 3.213l8.84-8.928s-7.412.178-13.572-2.59c-2.382-1.07-6.984-.428-9.739-.609-4.373-.287-6.94-1.02-10.172-1.623-5.267-.982-7.5-.713-7.5-.713s3.84-2.233 11.25-2.322c7.411-.09 17.768-4.018 25-4.107 7.233-.09 10.536.804 10.536.804l2.142-6.162s-6.784.359-11.338-1.338c0 0 5.893-1.25 9.91-2.857-5.714-2.5-18.214-1.964-23.84-.268 3.93-4.375 11.16-8.037 15.536-8.394 4.375-.357 12.322.537 12.322.537l.715-7.858s-10.536-.358-17.233-2.68a4.27 4.27 0 0 0-1.32-.226z" transform="scale(.26458)"/><path style="opacity:.23800001;fill:#fff;fill-opacity:1;stroke:none;stroke-width:.26458332px;stroke-linecap:butt;stroke-linejoin:miter;stroke-opacity:1" d="M19.844 259.35c-8.886 0-14.08 9.48-14.08 18.922 0 0 1.718-16.918 14.08-16.918s14.08 16.918 14.08 16.918c0-9.442-5.195-18.923-14.08-18.923z" transform="translate(0 -257.313)"/><path style="opacity:.54100001;fill:#000;stroke:none;stroke-width:.26458332px;stroke-linecap:butt;stroke-linejoin:miter;stroke-opacity:1" d="M5.764 278.272c.25 12.682 10.938 16.691 14.08 16.691 3.141 0 13.83-4.009 14.08-16.691-1.822 10.27-10.607 13.433-14.08 13.433-3.474 0-12.258-3.164-14.08-13.433z" transform="translate(0 -257.313)"/><path style="fill:none;stroke:#000;stroke-width:1.05833328;stroke-linecap:butt;stroke-linejoin:miter;stroke-miterlimit:4;stroke-dasharray:none;stroke-opacity:1" d="M19.844 259.35c-5.953 0-14.08 5.976-14.08 18.922 0 10.441 7.34 16.691 14.08 16.691s14.08-6.25 14.08-16.691c0-12.946-8.127-18.923-14.08-18.923z" transform="translate(0 -257.313)"/></svg>
